!!!OTL: Vater Noah.
!!!OTL-incipit: VATER NOAH WEINERFINDER
!!!COM: Nach der Volksweise
!!!ARE: Europa, Mitteleuropa, Deutschland
!!!SCT: F0738
!!!TXL: @@DE
!!!YEM: Copyright 1995, estate of Helmut Schaffrath.
**kern	**text
*ICvox	*
*clefG2	*
*M4/4	*
*met(c)	*
*k[b-e-]	*
*B-:	*
!LO:TX:a:t=Mäßig.	!
!LO:TX:a:t=P:only the highest voice encoded:problem	!
{8f	1._Va-
8f	-ter
=1	=1
4b-/	No-
4b-/	-ah,
4cc/	Wein-
4cc/	-er-
=2	=2
8dd/L	-ſin-
8ccJ	.
4b-/	-der,
4r}	.
{8b-/	dein
8b-/	Ge-
=3	=3
4cc/	-dächt-
4cc/	-niß
4dd/	ſei-
4dd/	-ern
=4	=4
2cc/	wir;
4r}	.
{8f	Du,
8f	der
=5	=5
4b-/	Sorgen
4b-/	.
4cc/	Ue-
4cc/	-ber-
=6	=6
8dd/L	-win-
8ccJ	.
4b-/	-der,
4r}	.
{8b-/	unſ-
8b-/	-er
=7	=7
4cc/	Dank
4cc/	ge-
4dd/	-büh-
4dd/	-ret
=8	=8
2cc/}	dir.
!LO:TX:a:t=Das ʒweite Mal Alle.	!
{8dd/L	Ja,
8ccJ	.
8b-/L	für
8aJ	.
=9	=9
4g	die-
8aL	-ſen
8bnJ	.
4cc/	ed-
4dd/	-len
=10	=10
2ee-/}	Trank
{4ee-/	ſin-
8dd/L	-gen
8ccJ	.
=11	=11
8cc/L	wir
8b-J	.
8a/L	dir,
8gJ	.
4f	No-
8gL	-ah
8aJ	.
=12	=12
2b-/}	Dank.
{8dd/L	Ja,
8ccJ	.
8b-L	für
8aJ	.
=13	=13
4g	die-
8a/L	-ſen
8bnJ	.
4cc/	ed-
4dd/	-len
=14	=14
2ee-/}	Trank
{4ee-/	ſin-
8dd/L	-gen
8ccJ	.
=15	=15
8cc/L	wir
8b-J	.
8aL	dir,
8gJ	.
4f	No-
8gL	-ah
8aJ	.
=16	=16
2b-/	Dank.
4r}	.
==	==
!!!AGN: Geselligkeits -, Trink - Lied
!!!ONB: ESAC (Essen Associative Code) Database: FINK
!!!AMT: simple quadruple
!!!AIN: vox
!!!EED: Helmut Schaffrath
!!!EEV: 1.0
!!!RDF**kern: > = above
!!!GTL: Liedertafel- und Gesellschaftslieder
!!!source: Musikalischer Hausschatz der Deutschen. Eine Sammlung von über 1000 Liedern und Gesängen mit Singstimmen und Klavierbegleitung. Leipzig, Litterarisches Verlags-Haus.
!!!page: 505
!!!URL-scan: https://www.digitale-sammlungen.de/en/view/bsb11144622?page=456
!!!ENC: Anna Maria Matuszewska
!!!EEV: 2024/08/05
*-	*-
